lib/svgs/circle-arrow-left-o.svg

<svg xmlns="http://www.w3.org/2000/svg" viewBox="0 0 20 20">
    <path fill="#000" fill-rule="evenodd" d="M10,2 C5.582,2 2,5.582 2,10 C2,14.418 5.582,18 10,18 C14.418,18 18,14.418 18,10 C18,5.582 14.418,2 10,2 L10,2 L10,2 L10,2 L10,2 L10,2 L10,2 Z M10,16.8 C6.25,16.8 3.2,13.75 3.2,10 C3.2,6.25 6.25,3.2 10,3.2 C13.75,3.2 16.8,6.25 16.8,10 C16.8,13.75 13.75,16.8 10,16.8 L10,16.8 L10,16.8 L10,16.8 L10,16.8 L10,16.8 L10,16.8 L10,16.8 Z M13.5148,9.3999 L7.9338,9.3999 L10.2428,7.0909 C10.4768,6.8569 10.4768,6.4769 10.2428,6.2419 C10.0088,6.0079 9.6288,6.0079 9.3938,6.2419 L6.0608,9.5759 C5.8268,9.8099 5.8268,10.1899 6.0608,10.4239 L9.3938,13.7569 C9.5118,13.8739 9.6648,13.9329 9.8188,13.9329 C9.9718,13.9329 10.1258,13.8739 10.2428,13.7569 C10.4768,13.5239 10.4768,13.1429 10.2428,12.9089 L7.9338,10.5999 L13.5148,10.5999 C13.8468,10.5999 14.1148,10.3319 14.1148,9.9999 C14.1148,9.6689 13.8468,9.3999 13.5148,9.3999 L13.5148,9.3999 L13.5148,9.3999 L13.5148,9.3999 L13.5148,9.3999 L13.5148,9.3999 L13.5148,9.3999 Z"/>
</svg>

<svg xmlns="http://www.w3.org/2000/svg" viewBox="0 0 20 20">
    <path fill="#000" fill-rule="evenodd" d="M10 2a8 8 0 1 0 0 16 8 8 0 0 0 0-16m0 14.8c-3.75 0-6.8-3.05-6.8-6.8S6.25 3.2 10 3.2s6.8 3.05 6.8 6.8-3.05 6.8-6.8 6.8m3.515-7.4H7.934l2.309-2.31a.601.601 0 0 0-.85-.848L6.062 9.576a.6.6 0 0 0 0 .848l3.333 3.333a.601.601 0 0 0 .849-.848l-2.31-2.31h5.582a.6.6 0 1 0 0-1.2"/>
</svg>
